rocket-bi-web/src/assets/icon/charts/ic_parliament.svg

<svg width="48" height="48" viewBox="0 0 48 48" fill="none" xmlns="http://www.w3.org/2000/svg">
<g clip-path="url(#clip0_3860_75961)">
<path d="M11.884 32.9034C12.654 32.9034 13.277 33.5164 13.277 34.2734C13.277 35.0304 12.653 35.6434 11.884 35.6434C11.114 35.6434 10.49 35.0304 10.49 34.2734C10.49 33.5164 11.114 32.9034 11.884 32.9034ZM8.38 32.9004C9.15 32.9004 9.774 33.5144 9.774 34.2704C9.774 35.0274 9.15 35.6404 8.38 35.6404C7.61 35.6404 6.986 35.0274 6.986 34.2704C6.986 33.5144 7.61 32.9004 8.38 32.9004ZM4.885 32.9004C5.655 32.9004 6.279 33.5134 6.279 34.2704C6.279 35.0274 5.655 35.6404 4.885 35.6404C4.115 35.6404 3.491 35.0274 3.491 34.2704C3.491 33.5134 4.116 32.9004 4.885 32.9004ZM1.394 32.8984C2.164 32.8984 2.788 33.5124 2.788 34.2684C2.788 35.0264 2.164 35.6394 1.394 35.6394C0.624 35.6394 0 35.0264 0 34.2694C0 33.5124 0.624 32.8984 1.394 32.8984ZM2.056 28.7554C2.826 28.7554 3.45 29.3684 3.45 30.1254C3.45 30.8824 2.826 31.4954 2.056 31.4954C1.286 31.4954 0.662 30.8824 0.662 30.1254C0.662 29.3684 1.286 28.7554 2.056 28.7554ZM5.709 28.6424C6.479 28.6424 7.103 29.2564 7.103 30.0124C7.103 30.7694 6.479 31.3824 5.709 31.3824C4.939 31.3824 4.315 30.7694 4.315 30.0124C4.315 29.2564 4.939 28.6424 5.709 28.6424ZM9.469 28.4754C10.238 28.4754 10.862 29.0894 10.862 29.8454C10.862 30.6024 10.238 31.2154 9.468 31.2154C8.698 31.2154 8.074 30.6024 8.074 29.8454C8.074 29.0894 8.699 28.4754 9.469 28.4754ZM13.479 28.2044C14.249 28.2044 14.873 28.8174 14.873 29.5744C14.873 30.3314 14.249 30.9444 13.48 30.9444C12.71 30.9444 12.086 30.3314 12.086 29.5744C12.086 28.8174 12.709 28.2044 13.479 28.2044ZM3.497 24.8074C4.267 24.8074 4.891 25.4204 4.891 26.1774C4.891 26.9344 4.267 27.5474 3.497 27.5474C2.727 27.5474 2.103 26.9344 2.103 26.1774C2.103 25.4204 2.727 24.8074 3.497 24.8074ZM7.5 24.6844C8.27 24.6844 8.894 25.2974 8.894 26.0544C8.894 26.8114 8.27 27.4244 7.5 27.4244C6.73 27.4244 6.106 26.8114 6.106 26.0544C6.106 25.2974 6.73 24.6844 7.5 24.6844ZM11.824 24.5544C12.594 24.5544 13.217 25.1684 13.217 25.9254C13.217 26.6824 12.593 27.2954 11.824 27.2954C11.054 27.2954 10.43 26.6824 10.43 25.9254C10.43 25.1684 11.054 24.5544 11.824 24.5544ZM16.871 24.5404C17.641 24.5404 18.264 25.1534 18.264 25.9104C18.264 26.6674 17.64 27.2804 16.871 27.2804C16.101 27.2804 15.477 26.6674 15.477 25.9104C15.477 25.1534 16.101 24.5404 16.871 24.5404ZM15.24 21.4824C16.01 21.4824 16.634 22.0964 16.634 22.8524C16.634 23.6104 16.01 24.2234 15.24 24.2234C14.47 24.2234 13.846 23.6104 13.846 22.8534C13.846 22.0964 14.47 21.4824 15.24 21.4824ZM10.164 21.2304C10.934 21.2304 11.557 21.8444 11.557 22.6004C11.557 23.3574 10.933 23.9704 10.164 23.9704C9.394 23.9704 8.77 23.3574 8.77 22.6004C8.77 21.8444 9.394 21.2304 10.164 21.2304ZM5.666 21.1934C6.436 21.1934 7.06 21.8074 7.06 22.5634C7.06 23.3204 6.436 23.9344 5.666 23.9344C4.896 23.9344 4.272 23.3204 4.272 22.5644C4.272 21.8074 4.896 21.1934 5.666 21.1934ZM19.42 19.5244C20.19 19.5244 20.814 20.1384 20.814 20.8944C20.814 21.6514 20.19 22.2644 19.42 22.2644C18.65 22.2644 18.026 21.6514 18.026 20.8944C18.026 20.1384 18.65 19.5244 19.42 19.5244ZM13.558 18.4684C14.328 18.4684 14.951 19.0814 14.951 19.8384C14.951 20.5954 14.327 21.2084 13.558 21.2084C12.788 21.2084 12.164 20.5954 12.164 19.8384C12.164 19.0814 12.788 18.4684 13.558 18.4684ZM8.484 18.0464C9.254 18.0464 9.878 18.6594 9.878 19.4164C9.878 20.1734 9.254 20.7864 8.484 20.7864C7.714 20.7864 7.09 20.1734 7.09 19.4164C7.09 18.6594 7.714 18.0464 8.484 18.0464ZM17.504 16.5414C18.274 16.5414 18.899 17.1554 18.899 17.9114C18.899 18.6684 18.275 19.2814 17.505 19.2814C16.735 19.2814 16.111 18.6684 16.111 17.9114C16.111 17.1554 16.734 16.5414 17.504 16.5414ZM11.854 15.4724C12.624 15.4724 13.248 16.0864 13.248 16.8424C13.248 17.5994 12.624 18.2124 11.854 18.2124C11.084 18.2124 10.461 17.5994 10.461 16.8424C10.461 16.0864 11.085 15.4724 11.854 15.4724ZM15.655 13.5664C16.425 13.5664 17.049 14.1804 17.049 14.9364C17.049 15.6934 16.425 16.3064 15.655 16.3064C14.885 16.3064 14.261 15.6934 14.261 14.9364C14.261 14.1804 14.885 13.5664 15.655 13.5664Z" fill="url(#paint0_linear_3860_75961)"/>
<path d="M21.4799 22.536C22.2499 22.536 22.8739 23.15 22.8739 23.906C22.8739 24.663 22.2499 25.276 21.4799 25.276C20.7099 25.276 20.0859 24.663 20.0859 23.906C20.0859 23.15 20.7099 22.536 21.4799 22.536ZM26.5199 22.536C27.2899 22.536 27.9139 23.15 27.9139 23.906C27.9139 24.663 27.2899 25.276 26.5199 25.276C25.7499 25.276 25.1259 24.663 25.1259 23.906C25.1259 23.15 25.7499 22.536 26.5199 22.536ZM32.7599 21.482C33.5299 21.482 34.1539 22.096 34.1539 22.852C34.1539 23.61 33.5299 24.223 32.7599 24.223C31.9899 24.223 31.3659 23.61 31.3659 22.853C31.3659 22.096 31.9899 21.482 32.7599 21.482ZM28.5799 19.524C29.3499 19.524 29.9739 20.138 29.9739 20.894C29.9739 21.651 29.3499 22.264 28.5799 22.264C27.8099 22.264 27.1859 21.651 27.1859 20.894C27.1859 20.138 27.8099 19.524 28.5799 19.524ZM23.9999 18.852C24.7699 18.852 25.3939 19.465 25.3939 20.222C25.3939 20.979 24.7699 21.592 23.9999 21.592C23.2299 21.592 22.6059 20.979 22.6059 20.222C22.6059 19.465 23.2299 18.852 23.9999 18.852ZM34.4419 18.468C35.2119 18.468 35.8359 19.081 35.8359 19.838C35.8359 20.595 35.2119 21.208 34.4419 21.208C33.6719 21.208 33.0489 20.595 33.0489 19.838C33.0489 19.081 33.6729 18.468 34.4419 18.468ZM30.4949 16.541C31.2649 16.541 31.8889 17.155 31.8889 17.911C31.8889 18.668 31.2649 19.281 30.4949 19.281C29.7249 19.281 29.1009 18.668 29.1009 17.911C29.1009 17.155 29.7249 16.541 30.4949 16.541ZM21.7959 15.551C22.5659 15.551 23.1899 16.164 23.1899 16.921C23.1899 17.678 22.5659 18.291 21.7959 18.291C21.0259 18.291 20.4029 17.678 20.4029 16.921C20.4029 16.164 21.0269 15.551 21.7959 15.551ZM26.2039 15.551C26.9739 15.551 27.5969 16.164 27.5969 16.921C27.5969 17.678 26.9729 18.291 26.2039 18.291C25.4339 18.291 24.8099 17.678 24.8099 16.921C24.8099 16.164 25.4339 15.551 26.2039 15.551ZM36.1459 15.472C36.9159 15.472 37.5389 16.086 37.5389 16.842C37.5389 17.599 36.9149 18.212 36.1459 18.212C35.3759 18.212 34.7519 17.599 34.7519 16.842C34.7519 16.086 35.3759 15.472 36.1459 15.472ZM32.3449 13.566C33.1149 13.566 33.7389 14.18 33.7389 14.936C33.7389 15.693 33.1149 16.306 32.3449 16.306C31.5749 16.306 30.9509 15.693 30.9509 14.936C30.9509 14.18 31.5749 13.566 32.3449 13.566ZM19.7519 12.395C20.5219 12.395 21.1449 13.008 21.1449 13.765C21.1449 14.522 20.5209 15.135 19.7519 15.135C18.9819 15.135 18.3579 14.522 18.3579 13.765C18.3579 13.008 18.9819 12.395 19.7519 12.395ZM28.2479 12.395C29.0179 12.395 29.6419 13.008 29.6419 13.765C29.6419 14.522 29.0179 15.135 28.2479 15.135C27.4779 15.135 26.8549 14.522 26.8549 13.765C26.8549 13.008 27.4789 12.395 28.2479 12.395ZM23.9999 12C24.7699 12 25.3939 12.614 25.3939 13.37C25.3939 14.127 24.7699 14.74 23.9999 14.74C23.2299 14.74 22.6059 14.127 22.6059 13.37C22.6059 12.614 23.2299 12 23.9999 12Z" fill="url(#paint1_linear_3860_75961)"/>
<path d="M36.1161 32.9029C36.8861 32.9029 37.5101 33.5159 37.5101 34.2729C37.5101 35.0299 36.8861 35.6429 36.1161 35.6429C35.3461 35.6429 34.7231 35.0299 34.7231 34.2729C34.7231 33.5159 35.3471 32.9029 36.1161 32.9029ZM39.6191 32.9009C40.3891 32.9009 41.0131 33.5149 41.0131 34.2709C41.0131 35.0279 40.3891 35.6409 39.6191 35.6409C38.8491 35.6409 38.2251 35.0279 38.2251 34.2709C38.2251 33.5149 38.8491 32.9009 39.6191 32.9009ZM43.1151 32.8999C43.8851 32.8999 44.5091 33.5129 44.5091 34.2699C44.5091 35.0269 43.8841 35.6399 43.1151 35.6399C42.3451 35.6399 41.7211 35.0269 41.7211 34.2699C41.7211 33.5129 42.3451 32.8999 43.1151 32.8999ZM46.6061 32.8979C47.3761 32.8979 48.0001 33.5119 48.0001 34.2679C48.0001 35.0259 47.3761 35.6389 46.6061 35.6389C45.8361 35.6389 45.2121 35.0259 45.2121 34.2689C45.2121 33.5119 45.8361 32.8979 46.6061 32.8979ZM45.9441 28.7549C46.7141 28.7549 47.3381 29.3679 47.3381 30.1249C47.3381 30.8819 46.7141 31.4949 45.9441 31.4949C45.1741 31.4949 44.5501 30.8819 44.5501 30.1249C44.5501 29.3679 45.1741 28.7549 45.9441 28.7549ZM42.2911 28.6419C43.0611 28.6419 43.6851 29.2559 43.6851 30.0119C43.6851 30.7689 43.0611 31.3819 42.2911 31.3819C41.5211 31.3819 40.8971 30.7689 40.8971 30.0119C40.8971 29.2559 41.5211 28.6419 42.2911 28.6419ZM38.5311 28.4749C39.3011 28.4749 39.9261 29.0889 39.9261 29.8449C39.9261 30.6019 39.3021 31.2149 38.5321 31.2149C37.7621 31.2149 37.1381 30.6019 37.1381 29.8449C37.1381 29.0889 37.7621 28.4749 38.5321 28.4749H38.5311ZM34.5211 28.2039C35.2911 28.2039 35.9141 28.8169 35.9141 29.5739C35.9141 30.3309 35.2901 30.9439 34.5201 30.9439C33.7501 30.9439 33.1271 30.3309 33.1271 29.5739C33.1271 28.8169 33.7521 28.2039 34.5211 28.2039ZM44.5031 24.8069C45.2731 24.8069 45.8971 25.4199 45.8971 26.1769C45.8971 26.9339 45.2731 27.5469 44.5031 27.5469C43.7331 27.5469 43.1091 26.9339 43.1091 26.1769C43.1091 25.4199 43.7331 24.8069 44.5031 24.8069ZM40.5001 24.6839C41.2701 24.6839 41.8941 25.2969 41.8941 26.0539C41.8941 26.8109 41.2701 27.4239 40.5001 27.4239C39.7301 27.4239 39.1061 26.8109 39.1061 26.0539C39.1061 25.2969 39.7301 24.6839 40.5001 24.6839ZM36.1761 24.5539C36.9461 24.5539 37.5701 25.1679 37.5701 25.9249C37.5701 26.6819 36.9461 27.2949 36.1761 27.2949C35.4061 27.2949 34.7831 26.6819 34.7831 25.9249C34.7831 25.1679 35.4071 24.5539 36.1761 24.5539ZM31.1291 24.5399C31.8991 24.5399 32.5231 25.1529 32.5231 25.9099C32.5231 26.6669 31.8991 27.2799 31.1291 27.2799C30.3591 27.2799 29.7361 26.6669 29.7361 25.9099C29.7361 25.1529 30.3601 24.5399 31.1291 24.5399ZM37.8361 21.2299C38.6061 21.2299 39.2301 21.8439 39.2301 22.5999C39.2301 23.3569 38.6061 23.9699 37.8361 23.9699C37.0661 23.9699 36.4431 23.3569 36.4431 22.5999C36.4431 21.8439 37.0671 21.2299 37.8361 21.2299ZM42.3341 21.1929C43.1041 21.1929 43.7281 21.8069 43.7281 22.5629C43.7281 23.3199 43.1041 23.9339 42.3341 23.9339C41.5641 23.9339 40.9401 23.3199 40.9401 22.5639C40.9401 21.8069 41.5641 21.1929 42.3341 21.1929ZM39.5161 18.0459C40.2861 18.0459 40.9101 18.6589 40.9101 19.4159C40.9101 20.1729 40.2861 20.7859 39.5161 20.7859C38.7461 20.7859 38.1221 20.1729 38.1221 19.4159C38.1221 18.6589 38.7461 18.0459 39.5161 18.0459Z" fill="url(#paint2_linear_3860_75961)"/>
</g>
<defs>
<linearGradient id="paint0_linear_3860_75961" x1="-3.50381e-08" y1="24.71" x2="20.814" y2="24.71" gradientUnits="userSpaceOnUse">
<stop stop-color="#A855F7"/>
<stop offset="1" stop-color="#3B82F6"/>
</linearGradient>
<linearGradient id="paint1_linear_3860_75961" x1="11.7596" y1="39.6307" x2="39.158" y2="33.2655" gradientUnits="userSpaceOnUse">
<stop stop-color="#568E8B"/>
<stop offset="0.776042" stop-color="#67F5ED"/>
</linearGradient>
<linearGradient id="paint2_linear_3860_75961" x1="25.097" y1="31.6836" x2="45.076" y2="30.8848" gradientUnits="userSpaceOnUse">
<stop stop-color="#F377B3"/>
<stop offset="1" stop-color="#FEB3DD"/>
</linearGradient>
<clipPath id="clip0_3860_75961">
<rect width="48" height="48" fill="white"/>
</clipPath>
</defs>
</svg>

<svg xmlns="http://www.w3.org/2000/svg" width="48" height="48" viewBox="0 0 48 48">
    <g fill="none" fill-rule="evenodd">
        <g>
            <g>
                <g>
                    <g>
                        <g>
                            <path d="M0 0H48V48H0z" opacity=".1" transform="translate(-739 -546) translate(372 106) translate(0 109) translate(332 307) translate(35 24)"/>
                            <path fill="#57F" fill-rule="nonzero" d="M11.884 32.903c.77 0 1.393.613 1.393 1.37 0 .757-.624 1.37-1.393 1.37-.77 0-1.394-.613-1.394-1.37 0-.757.624-1.37 1.394-1.37zM8.38 32.9c.77 0 1.394.614 1.394 1.37 0 .757-.624 1.37-1.394 1.37-.77 0-1.394-.613-1.394-1.37 0-.756.624-1.37 1.394-1.37zM4.885 32.9c.77 0 1.394.613 1.394 1.37 0 .757-.624 1.37-1.394 1.37-.77 0-1.394-.613-1.394-1.37 0-.757.625-1.37 1.394-1.37zm-3.491-.002c.77 0 1.394.614 1.394 1.37 0 .758-.624 1.371-1.394 1.371-.77 0-1.394-.613-1.394-1.37 0-.757.624-1.37 1.394-1.37zm.662-4.143c.77 0 1.394.613 1.394 1.37 0 .757-.624 1.37-1.394 1.37-.77 0-1.394-.613-1.394-1.37 0-.757.624-1.37 1.394-1.37zm3.653-.113c.77 0 1.394.614 1.394 1.37 0 .757-.624 1.37-1.394 1.37-.77 0-1.394-.613-1.394-1.37 0-.756.624-1.37 1.394-1.37zm3.76-.167c.769 0 1.393.614 1.393 1.37 0 .757-.624 1.37-1.394 1.37-.77 0-1.394-.613-1.394-1.37 0-.756.624-1.37 1.394-1.37zm4.01-.271c.77 0 1.394.613 1.394 1.37 0 .757-.624 1.37-1.393 1.37-.77 0-1.394-.613-1.394-1.37 0-.757.624-1.37 1.394-1.37zm-9.982-3.397c.77 0 1.394.613 1.394 1.37 0 .757-.624 1.37-1.394 1.37-.77 0-1.394-.613-1.394-1.37 0-.757.624-1.37 1.394-1.37zm4.003-.123c.77 0 1.394.613 1.394 1.37 0 .757-.624 1.37-1.394 1.37-.77 0-1.394-.613-1.394-1.37 0-.757.624-1.37 1.394-1.37zm4.324-.13c.77 0 1.393.614 1.393 1.371s-.624 1.37-1.393 1.37c-.77 0-1.394-.613-1.394-1.37 0-.757.624-1.37 1.394-1.37zm5.047-.014c.77 0 1.393.613 1.393 1.37 0 .757-.624 1.37-1.393 1.37-.77 0-1.394-.613-1.394-1.37 0-.757.624-1.37 1.394-1.37zm-1.631-3.058c.77 0 1.394.614 1.394 1.37 0 .758-.624 1.371-1.394 1.371-.77 0-1.394-.613-1.394-1.37 0-.757.624-1.37 1.394-1.37zm-5.076-.252c.77 0 1.393.614 1.393 1.37 0 .757-.624 1.37-1.393 1.37-.77 0-1.394-.613-1.394-1.37 0-.756.624-1.37 1.394-1.37zm-4.498-.037c.77 0 1.394.614 1.394 1.37 0 .757-.624 1.371-1.394 1.371-.77 0-1.394-.614-1.394-1.37 0-.757.624-1.37 1.394-1.37zm13.754-1.669c.77 0 1.394.614 1.394 1.37 0 .757-.624 1.37-1.394 1.37-.77 0-1.394-.613-1.394-1.37 0-.756.624-1.37 1.394-1.37zm-5.862-1.056c.77 0 1.393.613 1.393 1.37 0 .757-.624 1.37-1.393 1.37-.77 0-1.394-.613-1.394-1.37 0-.757.624-1.37 1.394-1.37zm-5.074-.422c.77 0 1.394.613 1.394 1.37 0 .757-.624 1.37-1.394 1.37-.77 0-1.394-.613-1.394-1.37 0-.757.624-1.37 1.394-1.37zm9.02-1.505c.77 0 1.395.614 1.395 1.37 0 .757-.624 1.37-1.394 1.37-.77 0-1.394-.613-1.394-1.37 0-.756.624-1.37 1.394-1.37zm-5.65-1.069c.77 0 1.394.614 1.394 1.37 0 .757-.624 1.37-1.394 1.37-.77 0-1.393-.613-1.393-1.37 0-.756.624-1.37 1.393-1.37zm3.801-1.906c.77 0 1.394.614 1.394 1.37 0 .757-.624 1.37-1.394 1.37-.77 0-1.394-.613-1.394-1.37 0-.756.624-1.37 1.394-1.37z" transform="translate(-739 -546) translate(372 106) translate(0 109) translate(332 307) translate(35 24)"/>
                            <path fill="#B7C5FF" fill-rule="nonzero" d="M21.48 22.536c.77 0 1.394.614 1.394 1.37 0 .757-.624 1.37-1.394 1.37-.77 0-1.394-.613-1.394-1.37 0-.756.624-1.37 1.394-1.37zm5.04 0c.77 0 1.394.614 1.394 1.37 0 .757-.624 1.37-1.394 1.37-.77 0-1.394-.613-1.394-1.37 0-.756.624-1.37 1.394-1.37zm6.24-1.054c.77 0 1.394.614 1.394 1.37 0 .758-.624 1.371-1.394 1.371-.77 0-1.394-.613-1.394-1.37 0-.757.624-1.37 1.394-1.37zm-4.18-1.958c.77 0 1.394.614 1.394 1.37 0 .757-.624 1.37-1.394 1.37-.77 0-1.394-.613-1.394-1.37 0-.756.624-1.37 1.394-1.37zM24 18.852c.77 0 1.394.613 1.394 1.37 0 .757-.624 1.37-1.394 1.37-.77 0-1.394-.613-1.394-1.37 0-.757.624-1.37 1.394-1.37zm10.442-.384c.77 0 1.394.613 1.394 1.37 0 .757-.624 1.37-1.394 1.37-.77 0-1.393-.613-1.393-1.37 0-.757.624-1.37 1.393-1.37zm-3.947-1.927c.77 0 1.394.614 1.394 1.37 0 .757-.624 1.37-1.394 1.37-.77 0-1.394-.613-1.394-1.37 0-.756.624-1.37 1.394-1.37zm-8.699-.99c.77 0 1.394.613 1.394 1.37 0 .757-.624 1.37-1.394 1.37-.77 0-1.393-.613-1.393-1.37 0-.757.624-1.37 1.393-1.37zm4.408 0c.77 0 1.393.613 1.393 1.37 0 .757-.624 1.37-1.393 1.37-.77 0-1.394-.613-1.394-1.37 0-.757.624-1.37 1.394-1.37zm9.942-.079c.77 0 1.393.614 1.393 1.37 0 .757-.624 1.37-1.393 1.37-.77 0-1.394-.613-1.394-1.37 0-.756.624-1.37 1.394-1.37zm-3.801-1.906c.77 0 1.394.614 1.394 1.37 0 .757-.624 1.37-1.394 1.37-.77 0-1.394-.613-1.394-1.37 0-.756.624-1.37 1.394-1.37zm-12.593-1.171c.77 0 1.393.613 1.393 1.37 0 .757-.624 1.37-1.393 1.37-.77 0-1.394-.613-1.394-1.37 0-.757.624-1.37 1.394-1.37zm8.496 0c.77 0 1.394.613 1.394 1.37 0 .757-.624 1.37-1.394 1.37-.77 0-1.393-.613-1.393-1.37 0-.757.624-1.37 1.393-1.37zM24 12c.77 0 1.394.614 1.394 1.37 0 .757-.624 1.37-1.394 1.37-.77 0-1.394-.613-1.394-1.37 0-.756.624-1.37 1.394-1.37z" transform="translate(-739 -546) translate(372 106) translate(0 109) translate(332 307) translate(35 24)"/>
                            <path fill="#7F98FE" fill-rule="nonzero" d="M36.116 32.903c.77 0 1.394.613 1.394 1.37 0 .757-.624 1.37-1.394 1.37-.77 0-1.393-.613-1.393-1.37 0-.757.624-1.37 1.393-1.37zm3.503-.002c.77 0 1.394.614 1.394 1.37 0 .757-.624 1.37-1.394 1.37-.77 0-1.394-.613-1.394-1.37 0-.756.624-1.37 1.394-1.37zm3.496-.001c.77 0 1.394.613 1.394 1.37 0 .757-.625 1.37-1.394 1.37-.77 0-1.394-.613-1.394-1.37 0-.757.624-1.37 1.394-1.37zm3.491-.002c.77 0 1.394.614 1.394 1.37 0 .758-.624 1.371-1.394 1.371-.77 0-1.394-.613-1.394-1.37 0-.757.624-1.37 1.394-1.37zm-.662-4.143c.77 0 1.394.613 1.394 1.37 0 .757-.624 1.37-1.394 1.37-.77 0-1.394-.613-1.394-1.37 0-.757.624-1.37 1.394-1.37zm-3.653-.113c.77 0 1.394.614 1.394 1.37 0 .757-.624 1.37-1.394 1.37-.77 0-1.394-.613-1.394-1.37 0-.756.624-1.37 1.394-1.37zm-3.76-.167c.77 0 1.395.614 1.395 1.37 0 .757-.624 1.37-1.394 1.37-.77 0-1.394-.613-1.394-1.37 0-.756.624-1.37 1.394-1.37zm-4.01-.271c.77 0 1.393.613 1.393 1.37 0 .757-.624 1.37-1.394 1.37-.77 0-1.393-.613-1.393-1.37 0-.757.624-1.37 1.393-1.37zm9.982-3.397c.77 0 1.394.613 1.394 1.37 0 .757-.624 1.37-1.394 1.37-.77 0-1.394-.613-1.394-1.37 0-.757.624-1.37 1.394-1.37zm-4.003-.123c.77 0 1.394.613 1.394 1.37 0 .757-.624 1.37-1.394 1.37-.77 0-1.394-.613-1.394-1.37 0-.757.624-1.37 1.394-1.37zm-4.324-.13c.77 0 1.394.614 1.394 1.371s-.624 1.37-1.394 1.37c-.77 0-1.393-.613-1.393-1.37 0-.757.624-1.37 1.393-1.37zm-5.047-.014c.77 0 1.394.613 1.394 1.37 0 .757-.624 1.37-1.394 1.37-.77 0-1.393-.613-1.393-1.37 0-.757.624-1.37 1.393-1.37zm6.707-3.31c.77 0 1.394.614 1.394 1.37 0 .757-.624 1.37-1.394 1.37-.77 0-1.393-.613-1.393-1.37 0-.756.624-1.37 1.393-1.37zm4.498-.037c.77 0 1.394.614 1.394 1.37 0 .757-.624 1.371-1.394 1.371-.77 0-1.394-.614-1.394-1.37 0-.757.624-1.37 1.394-1.37zm-2.818-3.147c.77 0 1.394.613 1.394 1.37 0 .757-.624 1.37-1.394 1.37-.77 0-1.394-.613-1.394-1.37 0-.757.624-1.37 1.394-1.37z" transform="translate(-739 -546) translate(372 106) translate(0 109) translate(332 307) translate(35 24)"/>
                        </g>
                    </g>
                </g>
            </g>
        </g>
    </g>
</svg>
